X:186
T:Grey Eagle
C:Traditional
N:Transcribed by Mike Stangeland
R:bluegrass
L:1/8
Q:1/4=232
M:4/4
K:A
z6 cB |: "A"A2 FA EC A,C | EF Ac BA Bc | A2 FA EC A,C | "E"EF (3ABc e2 (3cec | 
"A"A2 FA EC A,C | EF Ac (3BcB Ac | eA ce dc BG |1 E"E"G Bd (3"A"cec A2 :|2 E"E"G Bd (3"A"cec A2 | 
|: "A"ec Ae cA eA | "D"fd Ad fg af | "A"ed ce ce cA | "E"EG Bc dB GB | "A"Ae cA ec Ac | 
"D"dA Bd fa eg | "A"ab ga (3faf ed | "E"ce Bc "A"A4 :| 


